name_svg/Resuscitatio.svg

<?xml version="1.0" encoding="UTF-8"?>
<svg id="_레이어_2" data-name="레이어 2" xmlns="http://www.w3.org/2000/svg" viewBox="0 0 1222.69 211.26">
  <defs>
    <style>
      .cls-1 {
        fill: none;
      }
    </style>
  </defs>
  <g id="kerning">
    <g>
      <path d="M370.76,120.73v-11.75c0-18.19-7.36-25.4-17.89-19.97l-47.57,32.82-18.09,12.24v25.83c0,15.85,17.79,25.19,30.83,16.19l34.82-24.02v18.2c0,26.84-19.78,33.31-19.78,33.31h-6.57c-9.99,0-18.21-7.5-19.39-17.17h-17.92c1.74,13.88,10.51,24.87,24.13,24.87h20.51c22.18-9.25,36.91-17.95,36.91-47.56v-30.06l-17.89,12.34-31.92,22.02c-6.62,4.57-15.65-.17-15.65-8.22v-31.45l29.64-20.63c7.57-5.27,17.93-4.46,17.93,16.05v9.32s17.89-12.35,17.89-12.35Z"/>
      <path d="M574.95,120.73v-11.75c0-18.19-7.36-25.4-17.89-19.97l-47.57,32.82-18.09,12.24v25.83c0,15.85,17.79,25.19,30.83,16.19l34.82-24.02v18.2c0,26.84-19.78,33.31-19.78,33.31h-6.57c-9.99,0-18.21-7.5-19.39-17.17h-17.92c1.74,13.88,10.51,24.87,24.13,24.87h20.51c22.18-9.25,36.91-17.95,36.91-47.56v-30.06l-17.89,12.34-31.92,22.02c-6.62,4.57-15.65-.17-15.65-8.22v-31.45l29.64-20.63c7.57-5.27,17.93-4.46,17.93,16.05v9.32s17.89-12.35,17.89-12.35Z"/>
      <g>
        <path d="M751.16,203.57c-14,0-23.36-8.76-23.36-34.8v-99.36h0v-16.25l-46.89,34.68c-1.1.82-.16,2.52,1.13,2.04,3.65-1.39,8.11-4.24,12.81-6.78,6.81-3.67,15.07,1.33,15.07,9.06v78.36c0,21.13-7.28,33.05-18.72,33.05,0,0-4.74-.37-7.42,0-6.39.88-18.66,7.69-7.76,7.69h88.51v-7.69h-13.36Z"/>
        <path d="M706.12,26.99v17.13l20.92-15.34V2.69l-13.69,10.04c-4.54,3.33-7.22,8.62-7.22,14.26Z"/>
      </g>
      <path d="M1054.29,164.85v5.4c0,23.48-28.27,33.31-28.27,33.31h-.54c-10.77,0-19.75-13.17-19.75-22.52v-98.98l39.45-27.21v-6.07l-39.45,27.22V18.94h0V2.69l-46.89,34.68c-1.1.82-.16,2.52,1.13,2.04,3.65-1.39,8.11-4.24,12.81-6.78,6.81-3.67,15.07,1.33,15.07,9.06v46.64l-17.97,12.39v6.07l17.97-12.39v56.41h.01v30.43c0,16.22,9.19,30.02,24.46,30.02h16.65c22.18-9.25,43.23-22.03,43.23-47.56v-11.19l-17.89,12.34Z"/>
      <g>
        <path d="M1132.48,203.57c-14,0-23.36-8.76-23.36-34.8v-99.36h0v-16.25l-46.89,34.68c-1.1.82-.16,2.52,1.13,2.04,3.65-1.39,8.11-4.24,12.81-6.78,6.81-3.67,15.07,1.33,15.07,9.06v78.36c0,21.13-7.28,33.05-18.72,33.05,0,0-4.74-.37-7.42,0-6.39.88-18.66,7.69-7.76,7.69h88.51v-7.69h-13.36Z"/>
        <path d="M1087.44,26.99v17.13l20.92-15.34V2.69l-13.69,10.04c-4.54,3.33-7.22,8.62-7.22,14.26Z"/>
      </g>
      <path d="M1219.31,91.7c-3.14-5.32-8.27-6.54-14.52-3.33l-66.25,45.73v29.96c0,33.18,22.59,47.2,40.48,47.2,0,0,43.66-12.21,43.66-47.56v-55.35c0-7.41-1.22-12.99-3.38-16.64ZM1204.79,152.06v18.2c0,26.84-25.62,33.31-25.62,33.31h-2.51c-5.31-.39-20.23-7.36-20.23-42.69v-32.68l32.22-22.22c3.49-1.87,7.33-2.36,10.39-.29,1.26.85,2.39,2.14,3.3,3.95,1.51,2.97,2.44,7.34,2.44,13.49v28.93h0Z"/>
      <path d="M976.97,203.57c-18.12,0-23.36-8.76-23.36-34.8h-.02v-4.48c0-.2,0-.39,0-.59v-54.72c0-18.19-7.36-25.4-17.89-19.97l-47.57,32.82-18.09,12.24v32.24l18.09-12.48v-25.5l29.64-20.63c7.57-5.27,17.93-4.46,17.93,16.05v13.49s-65.66,45.29-65.66,45.29v10.64c0,9.99,12,18.09,23.91,18.09h22.73c7.21-3.01,13.62-5.96,19.01-9.59h0c0,1.89,4.72,9.59,14.37,9.59h30.09v-7.69h-3.2ZM915.92,203.57h-8.66c-10.56,0-19.13-8.56-19.13-19.13v-8.3l47.57-32.81v26.93c0,26.84-19.78,33.31-19.78,33.31Z"/>
      <path d="M843.5,164.85v5.4c0,23.48-28.27,33.31-28.27,33.31h-.54c-10.77,0-19.75-13.17-19.75-22.52v-98.98l39.45-27.21v-6.07l-39.45,27.22V18.94h0V2.69l-46.89,34.68c-1.1.82-.16,2.52,1.13,2.04,3.65-1.39,8.11-4.24,12.81-6.78,6.81-3.67,15.07,1.33,15.07,9.06v46.64l-17.97,12.39v6.07l17.97-12.39v56.41h.01v30.43c0,16.22,9.19,30.02,24.46,30.02h16.65c22.18-9.25,43.23-22.03,43.23-47.56v-11.19l-17.89,12.34Z"/>
      <path d="M488.2,203.57c-18.12,0-23.36-8.76-23.36-34.8h-.02v-88.1s-46.9,34.68-46.9,34.68c-1.1.82-.16,2.52,1.13,2.04,3.65-1.39,8.11-4.24,12.81-6.78,6.81-3.67,15.07,1.33,15.07,9.06l.02,50.58c0,26.84-25.62,33.31-25.62,33.31h-2.51c-5.31-.39-20.02-7.36-20.02-42.69v-39.27l-18.1,12.49v29.96c0,33.18,22.59,47.2,40.48,47.2,0,0,13.71-3.84,25.77-13.43,0,0,2.32,13.43,14.37,13.43h30.09v-7.69h-3.2Z"/>
      <path d="M652.28,170.26c0,26.84-20.32,33.31-20.32,33.31h-6.2c-11.03,0-20.47-8.66-20.56-19.37v-55.87l29.64-20.63c7.57-5.27,17.93-4.46,17.93,16.05v9.32s17.89-12.35,17.89-12.35v-11.75c0-18.19-7.36-25.4-17.89-19.97l-65.66,45.06v47.18c0,16.22,9.44,30.02,25.12,30.02h20.52c22.79-9.25,37.91-17.95,37.91-47.56v-11.19l-18.38,12.34v5.4Z"/>
      <path class="cls-1" d="M146.99,36.51c0-6.15-.94-10.51-2.44-13.49-.92-1.81-2.04-3.1-3.3-3.95-3.06-2.07-6.9-1.58-10.39.29l-66.51,45.88c0,9.19,0,54.61,0,82.15l82.66-57.02v-53.86Z"/>
      <path d="M179.06,203.57c-13.51,0-22.68-8.16-23.32-32.09h-.03v-48.47c0-17.9-7.12-25.15-17.39-20.21l17.39-11.99,9.17-6.32V21.73c0-7.41-1.22-12.99-3.38-16.64-3.14-5.32-8.27-6.54-14.52-3.33L.42,102.64c-.94.64-.17,2.1.89,1.68,6.82-2.73,16.59-8.49,26.51-12.07,8.62-3.11,17.68,2.82,18.54,11.69l.07,66.58c0,18.94-9.28,33.05-20.72,33.05,0,0-8.13-.37-10.81,0-6.39.88-18.66,7.69-7.76,7.69h57.19v-42.42s0-.04,0-.07c0,0,0-5.92,0-14.94l59.64-41.14c6.74-2.03,13.85,8.1,13.85,25.09v33.69h0v39.79h54.61v-7.69h-13.36ZM64.33,65.25l66.51-45.88c3.49-1.87,7.33-2.36,10.39-.29,1.26.85,2.39,2.14,3.3,3.95,1.51,2.97,2.44,7.34,2.44,13.49v53.86l-82.66,57.02c0-27.53,0-72.96,0-82.15Z"/>
      <path d="M259.07,97.71l-47.57,32.82h0s-15.88,10.96-15.88,10.96v39.76c0,16.22,9.19,30.02,24.46,30.02h19.98c22.18-9.25,36.91-17.95,36.91-47.56v-11.19l-17.89,12.34v5.4c0,26.84-19.78,33.31-19.78,33.31h-6.04c-10.79,0-19.54-8.75-19.54-19.54h0s62.07-42.82,62.07-42.82l1.19-.82v-55.02l-17.89,12.34ZM213.71,135.5l45.36-31.57v42.73l-45.36,31.29v-42.45Z"/>
    </g>
  </g>
</svg>

<svg width="1223" height="212" viewBox="0 0 1223 212" fill="none" xmlns="http://www.w3.org/2000/svg">
<g clip-path="url(#clip0_1_99)">
<path d="M370.76 120.73V108.98C370.76 90.79 363.4 83.58 352.87 89.01L305.3 121.83L287.21 134.07V159.9C287.21 175.75 305 185.09 318.04 176.09L352.86 152.07V170.27C352.86 197.11 333.08 203.58 333.08 203.58H326.51C316.52 203.58 308.3 196.08 307.12 186.41H289.2C290.94 200.29 299.71 211.28 313.33 211.28H333.84C356.02 202.03 370.75 193.33 370.75 163.72V133.66L352.86 146L320.94 168.02C314.32 172.59 305.29 167.85 305.29 159.8V128.35L334.93 107.72C342.5 102.45 352.86 103.26 352.86 123.77V133.09L370.75 120.74L370.76 120.73Z" fill="white"/>
<path d="M574.95 120.73V108.98C574.95 90.79 567.59 83.58 557.06 89.01L509.49 121.83L491.4 134.07V159.9C491.4 175.75 509.19 185.09 522.23 176.09L557.05 152.07V170.27C557.05 197.11 537.27 203.58 537.27 203.58H530.7C520.71 203.58 512.49 196.08 511.31 186.41H493.39C495.13 200.29 503.9 211.28 517.52 211.28H538.03C560.21 202.03 574.94 193.33 574.94 163.72V133.66L557.05 146L525.13 168.02C518.51 172.59 509.48 167.85 509.48 159.8V128.35L539.12 107.72C546.69 102.45 557.05 103.26 557.05 123.77V133.09L574.94 120.74L574.95 120.73Z" fill="white"/>
<path d="M751.16 203.57C737.16 203.57 727.8 194.81 727.8 168.77V69.41V53.16L680.91 87.84C679.81 88.66 680.75 90.36 682.04 89.88C685.69 88.49 690.15 85.64 694.85 83.1C701.66 79.43 709.92 84.43 709.92 92.16V170.52C709.92 191.65 702.64 203.57 691.2 203.57C691.2 203.57 686.46 203.2 683.78 203.57C677.39 204.45 665.12 211.26 676.02 211.26H764.53V203.57H751.17H751.16Z" fill="white"/>
<path d="M706.12 26.99V44.12L727.04 28.78V2.69L713.35 12.73C708.81 16.06 706.13 21.35 706.13 26.99H706.12Z" fill="white"/>
<path d="M1054.29 164.85V170.25C1054.29 193.73 1026.02 203.56 1026.02 203.56H1025.48C1014.71 203.56 1005.73 190.39 1005.73 181.04V82.06L1045.18 54.85V48.78L1005.73 76V18.94V2.69L958.84 37.37C957.74 38.19 958.68 39.89 959.97 39.41C963.62 38.02 968.08 35.17 972.78 32.63C979.59 28.96 987.85 33.96 987.85 41.69V88.33L969.88 100.72V106.79L987.85 94.4V150.81H987.86V181.24C987.86 197.46 997.05 211.26 1012.32 211.26H1028.97C1051.15 202.01 1072.2 189.23 1072.2 163.7V152.51L1054.31 164.85H1054.29Z" fill="white"/>
<path d="M1132.48 203.57C1118.48 203.57 1109.12 194.81 1109.12 168.77V69.41V53.16L1062.23 87.84C1061.13 88.66 1062.07 90.36 1063.36 89.88C1067.01 88.49 1071.47 85.64 1076.17 83.1C1082.98 79.43 1091.24 84.43 1091.24 92.16V170.52C1091.24 191.65 1083.96 203.57 1072.52 203.57C1072.52 203.57 1067.78 203.2 1065.1 203.57C1058.71 204.45 1046.44 211.26 1057.34 211.26H1145.85V203.57H1132.49H1132.48Z" fill="white"/>
<path d="M1087.44 26.99V44.12L1108.36 28.78V2.69L1094.67 12.73C1090.13 16.06 1087.45 21.35 1087.45 26.99H1087.44Z" fill="white"/>
<path d="M1219.31 91.7C1216.17 86.38 1211.04 85.16 1204.79 88.37L1138.54 134.1V164.06C1138.54 197.24 1161.13 211.26 1179.02 211.26C1179.02 211.26 1222.68 199.05 1222.68 163.7V108.35C1222.68 100.94 1221.46 95.36 1219.3 91.71L1219.31 91.7ZM1204.79 152.06V170.26C1204.79 197.1 1179.17 203.57 1179.17 203.57H1176.66C1171.35 203.18 1156.43 196.21 1156.43 160.88V128.2L1188.65 105.98C1192.14 104.11 1195.98 103.62 1199.04 105.69C1200.3 106.54 1201.43 107.83 1202.34 109.64C1203.85 112.61 1204.78 116.98 1204.78 123.13V152.06H1204.79Z" fill="white"/>
<path d="M976.97 203.57C958.85 203.57 953.61 194.81 953.61 168.77H953.59V164.29C953.59 164.09 953.59 163.9 953.59 163.7V108.98C953.59 90.79 946.23 83.58 935.7 89.01L888.13 121.83L870.04 134.07V166.31L888.13 153.83V128.33L917.77 107.7C925.34 102.43 935.7 103.24 935.7 123.75V137.24L870.04 182.53V193.17C870.04 203.16 882.04 211.26 893.95 211.26H916.68C923.89 208.25 930.3 205.3 935.69 201.67C935.69 203.56 940.41 211.26 950.06 211.26H980.15V203.57H976.95H976.97ZM915.92 203.57H907.26C896.7 203.57 888.13 195.01 888.13 184.44V176.14L935.7 143.33V170.26C935.7 197.1 915.92 203.57 915.92 203.57Z" fill="white"/>
<path d="M843.5 164.85V170.25C843.5 193.73 815.23 203.56 815.23 203.56H814.69C803.92 203.56 794.94 190.39 794.94 181.04V82.06L834.39 54.85V48.78L794.94 76V18.94V2.69L748.05 37.37C746.95 38.19 747.89 39.89 749.18 39.41C752.83 38.02 757.29 35.17 761.99 32.63C768.8 28.96 777.06 33.96 777.06 41.69V88.33L759.09 100.72V106.79L777.06 94.4V150.81H777.07V181.24C777.07 197.46 786.26 211.26 801.53 211.26H818.18C840.36 202.01 861.41 189.23 861.41 163.7V152.51L843.52 164.85H843.5Z" fill="white"/>
<path d="M488.2 203.57C470.08 203.57 464.84 194.81 464.84 168.77H464.82V80.67L417.92 115.35C416.82 116.17 417.76 117.87 419.05 117.39C422.7 116 427.16 113.15 431.86 110.61C438.67 106.94 446.93 111.94 446.93 119.67L446.95 170.25C446.95 197.09 421.33 203.56 421.33 203.56H418.82C413.51 203.17 398.8 196.2 398.8 160.87V121.6L380.7 134.09V164.05C380.7 197.23 403.29 211.25 421.18 211.25C421.18 211.25 434.89 207.41 446.95 197.82C446.95 197.82 449.27 211.25 461.32 211.25H491.41V203.56H488.21L488.2 203.57Z" fill="white"/>
<path d="M652.28 170.26C652.28 197.1 631.96 203.57 631.96 203.57H625.76C614.73 203.57 605.29 194.91 605.2 184.2V128.33L634.84 107.7C642.41 102.43 652.77 103.24 652.77 123.75V133.07L670.66 120.72V108.97C670.66 90.78 663.3 83.57 652.77 89L587.11 134.06V181.24C587.11 197.46 596.55 211.26 612.23 211.26H632.75C655.54 202.01 670.66 193.31 670.66 163.7V152.51L652.28 164.85V170.25V170.26Z" fill="white"/>
<path d="M179.06 203.57C165.55 203.57 156.38 195.41 155.74 171.48H155.71V123.01C155.71 105.11 148.59 97.86 138.32 102.8L155.71 90.81L164.88 84.49V21.73C164.88 14.32 163.66 8.74 161.5 5.09C158.36 -0.229997 153.23 -1.45 146.98 1.76L0.420005 102.64C-0.519995 103.28 0.250005 104.74 1.31 104.32C8.13 101.59 17.9 95.83 27.82 92.25C36.44 89.14 45.5 95.07 46.36 103.94L46.43 170.52C46.43 189.46 37.15 203.57 25.71 203.57C25.71 203.57 17.58 203.2 14.9 203.57C8.51 204.45 -3.75999 211.26 7.14 211.26H64.33V168.84C64.33 168.84 64.33 168.8 64.33 168.77C64.33 168.77 64.33 162.85 64.33 153.83L123.97 112.69C130.71 110.66 137.82 120.79 137.82 137.78V171.47V211.26H192.43V203.57H179.07H179.06ZM64.33 65.25L130.84 19.37C134.33 17.5 138.17 17.01 141.23 19.08C142.49 19.93 143.62 21.22 144.53 23.03C146.04 26 146.97 30.37 146.97 36.52V90.38L64.31 147.4C64.31 119.87 64.31 74.44 64.31 65.25H64.33Z" fill="white"/>
<path d="M259.07 97.71L211.5 130.53L195.62 141.49V181.25C195.62 197.47 204.81 211.27 220.08 211.27H240.06C262.24 202.02 276.97 193.32 276.97 163.71V152.52L259.08 164.86V170.26C259.08 197.1 239.3 203.57 239.3 203.57H233.26C222.47 203.57 213.72 194.82 213.72 184.03L275.79 141.21L276.98 140.39V85.37L259.09 97.71H259.07ZM213.71 135.5L259.07 103.93V146.66L213.71 177.95V135.5Z" fill="white"/>
</g>
<defs>
<clipPath id="clip0_1_99">
<rect width="1222.69" height="211.26" fill="white"/>
</clipPath>
</defs>
</svg>
